<?xml version="1.0" encoding="UTF-8"?>
<map version="1.10" tiledversion="1.11.2" orientation="orthogonal" renderorder="right-down" width="30" height="20" tilewidth="16" tileheight="16" infinite="0" nextlayerid="7" nextobjectid="182">
 <tileset firstgid="1" source="Overworld_Tileset.tsx"/>
 <tileset firstgid="235" source="water_tile_anim_strip_8.tsx"/>
 <tileset firstgid="243" source="edge_water_tile_anim_strip_8.tsx"/>
 <tileset firstgid="251" source="Prototype_Tileset.tsx"/>
 <layer id="1" name="prototype" width="30" height="20">
  <data encoding="csv">
253,253,253,253,253,253,253,253,252,253,253,253,253,253,253,253,253,253,252,252,252,252,254,254,254,254,254,254,254,254,
253,253,253,253,253,253,253,253,252,253,253,253,253,253,253,253,253,253,252,252,252,252,254,254,254,254,254,254,254,254,
253,253,253,253,253,253,253,253,252,253,253,253,253,253,253,253,253,253,252,252,252,252,252,254,254,254,254,254,254,254,
261,261,261,261,261,261,261,261,252,253,253,253,253,253,253,253,253,253,252,252,252,252,252,254,254,254,254,254,254,254,
261,261,261,261,261,261,261,261,252,252,253,253,253,253,253,253,253,253,252,252,252,252,252,254,254,254,254,254,254,254,
261,261,261,261,261,261,261,261,252,252,252,252,252,252,253,253,252,252,252,252,252,252,252,252,254,254,254,254,254,254,
261,261,261,261,261,261,261,261,252,252,252,252,252,252,252,252,252,252,252,252,252,252,252,252,252,252,252,252,252,252,
252,252,252,252,252,252,252,252,252,252,252,252,252,252,252,252,252,252,252,252,252,252,252,252,252,252,252,252,252,252,
252,252,252,252,252,252,252,252,252,252,252,252,252,252,252,252,252,252,252,252,252,252,252,252,259,259,259,259,259,259,
252,252,252,252,252,252,252,252,252,252,252,252,252,252,252,252,252,252,252,252,252,252,252,259,259,259,259,259,259,259,
252,252,252,252,252,252,252,252,252,252,252,252,252,252,252,252,252,252,252,252,252,252,259,259,259,259,259,259,259,259,
252,252,252,252,252,252,252,252,252,252,252,252,252,252,252,252,252,252,252,252,252,252,259,259,259,259,252,252,252,252,
252,252,252,252,252,252,252,252,252,252,252,252,252,252,252,252,252,252,252,252,252,252,259,259,259,252,252,252,252,252,
252,252,252,252,252,252,252,252,252,252,252,252,252,252,252,252,252,252,252,252,252,252,259,259,259,252,252,252,252,252,
252,252,252,252,252,252,252,252,252,252,252,252,252,252,252,252,252,252,252,252,252,252,259,259,259,252,252,252,252,252,
252,252,252,252,252,252,252,252,252,252,252,252,252,252,252,252,252,252,252,252,252,252,259,259,259,252,252,252,252,252,
252,252,252,252,252,252,252,252,252,252,252,252,252,252,252,252,252,252,252,252,252,252,259,259,259,252,252,252,252,252,
252,252,252,252,252,252,252,252,252,252,252,252,252,252,252,252,252,252,252,252,252,252,259,259,259,252,252,252,252,252,
252,252,252,252,252,252,252,252,252,252,252,252,252,252,252,252,252,252,252,252,252,252,259,259,259,252,252,252,252,252,
252,252,252,252,252,252,252,252,252,252,252,252,252,252,252,252,252,252,252,252,252,252,259,259,259,252,252,252,252,252
</data>
 </layer>
 <layer id="3" name="water" width="30" height="20">
  <data encoding="csv">
0,0,0,0,0,0,0,0,0,0,0,0,0,0,0,0,0,0,0,0,0,0,0,0,0,0,0,0,0,0,
0,0,0,0,0,0,0,0,0,0,0,0,0,0,0,0,0,0,0,0,0,0,0,0,0,0,0,0,0,0,
0,0,0,0,0,0,0,0,0,0,0,0,0,0,0,0,0,0,0,0,0,0,0,0,0,0,0,0,0,0,
0,0,0,0,0,0,0,0,0,0,0,0,0,0,0,0,0,0,0,0,0,0,0,0,0,0,0,0,0,0,
0,0,0,0,0,0,0,0,0,0,0,0,0,0,0,0,0,0,0,0,0,0,0,0,0,0,0,0,0,0,
0,0,0,0,0,0,0,0,0,0,0,0,0,0,0,0,0,0,0,0,0,0,0,0,0,0,0,0,0,0,
0,0,0,0,0,0,0,0,0,0,0,0,0,0,0,0,0,0,0,0,0,0,0,0,0,0,0,0,0,0,
0,0,0,0,0,0,0,0,0,0,0,0,0,0,0,0,0,0,0,0,0,0,0,0,0,0,0,0,0,0,
0,0,0,0,0,0,0,0,0,0,0,0,0,0,0,0,0,0,0,0,0,0,0,0,243,243,243,243,243,243,
0,0,0,0,0,0,0,0,0,0,0,0,0,0,0,0,0,0,0,0,0,0,0,243,235,235,235,235,235,235,
0,0,0,0,0,0,0,0,0,0,0,0,0,0,0,0,0,0,0,0,0,0,243,235,235,235,235,235,235,235,
0,0,0,0,0,0,0,0,0,0,0,0,0,0,0,0,0,0,0,0,0,0,235,235,235,235,235,235,235,235,
0,0,0,0,0,0,0,0,0,0,0,0,0,0,0,0,0,0,0,0,0,0,235,235,235,235,0,0,0,0,
0,0,0,0,0,0,0,0,0,0,0,0,0,0,0,0,0,0,0,0,0,0,235,235,235,0,0,0,0,0,
0,0,0,0,0,0,0,0,0,0,0,0,0,0,0,0,0,0,0,0,0,0,235,235,235,0,0,0,0,0,
0,0,0,0,0,0,0,0,0,0,0,0,0,0,0,0,0,0,0,0,0,0,235,235,235,0,0,0,0,0,
0,0,0,0,0,0,0,0,0,0,0,0,0,0,0,0,0,0,0,0,0,0,235,235,235,0,0,0,0,0,
0,0,0,0,0,0,0,0,0,0,0,0,0,0,0,0,0,0,0,0,0,0,235,235,235,0,0,0,0,0,
0,0,0,0,0,0,0,0,0,0,0,0,0,0,0,0,0,0,0,0,0,0,235,235,235,0,0,0,0,0,
0,0,0,0,0,0,0,0,0,0,0,0,0,0,0,0,0,0,0,0,0,0,235,235,235,0,0,0,0,0
</data>
 </layer>
 <layer id="2" name="terrain" width="30" height="20">
  <data encoding="csv">
0,0,0,0,0,0,0,0,25,0,0,0,0,0,0,0,0,0,25,25,25,25,25,0,0,0,0,0,0,0,
0,0,0,0,0,0,0,0,25,0,0,0,0,0,0,0,0,0,25,25,25,25,25,0,0,0,0,0,0,0,
0,0,0,0,0,0,0,0,25,0,0,0,0,0,0,0,0,0,25,25,25,25,25,25,0,0,0,0,0,0,
0,0,0,0,0,0,0,0,25,25,0,0,0,0,0,0,0,0,25,25,25,25,25,25,0,0,0,0,0,0,
0,0,0,0,0,0,0,0,25,25,25,0,0,0,0,0,0,25,25,25,25,25,25,25,0,0,0,0,0,0,
0,0,0,0,0,0,0,0,25,25,25,25,25,25,25,25,25,25,25,25,25,25,25,25,25,0,0,0,0,0,
0,0,0,0,0,0,0,25,25,25,25,25,25,25,25,25,25,25,25,25,25,25,25,25,25,25,25,25,25,25,
25,25,25,25,25,25,25,25,25,25,25,25,25,25,25,25,25,25,25,25,25,25,25,25,25,25,25,25,25,25,
25,25,25,25,25,25,25,25,25,25,25,25,25,25,25,25,25,25,25,25,25,25,25,65,0,0,0,0,0,0,
25,25,25,25,25,25,25,25,25,25,25,25,25,25,25,25,25,25,25,25,25,25,65,0,0,0,0,0,0,0,
25,25,25,25,25,25,25,25,25,25,25,25,25,25,25,25,25,25,25,25,25,65,0,0,0,0,0,0,0,0,
25,25,25,25,25,25,25,25,25,25,25,25,25,25,25,25,25,25,25,25,25,22,0,0,0,0,1,2,2,2,
25,25,25,25,25,25,25,25,25,25,25,25,25,25,25,25,25,25,25,25,25,22,0,0,0,1,25,25,25,25,
25,25,25,25,25,25,25,25,25,25,25,25,25,25,25,25,25,25,25,25,25,22,0,0,0,19,25,25,25,25,
25,25,25,25,25,25,25,25,25,25,25,25,25,25,25,25,25,25,25,25,25,22,0,0,0,19,25,25,25,25,
25,25,25,25,25,25,25,25,25,25,25,25,25,25,25,25,25,25,25,25,25,22,0,0,0,19,25,25,25,25,
25,25,25,25,25,25,25,25,25,25,25,25,25,25,25,25,25,25,25,25,25,22,0,0,0,19,25,25,25,25,
25,25,25,25,25,25,25,25,25,25,25,25,25,25,25,25,25,25,25,25,25,22,0,0,0,19,25,25,25,25,
25,25,25,25,25,25,25,25,25,25,25,25,25,25,25,25,25,25,25,25,25,22,0,0,0,19,25,25,25,25,
25,25,25,25,25,25,25,25,25,25,25,25,25,25,25,25,25,25,25,25,25,22,0,0,0,19,25,25,25,25
</data>
 </layer>
 <layer id="5" name="rise" width="30" height="20">
  <data encoding="csv">
0,25,25,25,25,25,25,22,0,19,25,25,25,25,25,25,25,22,0,0,0,0,23,0,0,0,0,0,0,0,
0,25,25,25,25,25,25,22,0,19,25,25,25,25,25,25,25,22,0,0,0,0,41,25,25,25,25,25,25,0,
25,25,25,25,25,25,25,22,0,19,25,25,25,25,25,25,25,22,0,0,0,0,0,23,25,25,25,25,25,0,
116,116,116,116,116,116,116,117,0,37,25,25,25,25,25,25,25,22,0,0,0,0,0,23,25,25,25,25,25,0,
134,134,134,134,134,134,134,135,0,0,37,38,38,38,25,25,38,40,0,0,0,0,0,41,25,25,25,25,25,0,
134,134,134,134,134,134,134,135,0,0,0,0,0,0,37,40,0,0,0,0,0,0,0,0,41,42,42,42,42,42,
152,152,152,152,152,152,152,153,0,0,0,0,0,0,0,0,0,0,0,0,0,0,0,0,0,0,0,0,0,0,
0,0,0,0,0,0,0,0,0,0,0,0,0,0,0,0,0,0,0,0,0,0,0,0,0,0,0,0,0,0,
0,0,0,0,0,0,0,0,0,0,0,0,0,0,0,0,0,0,0,0,0,0,0,0,0,0,0,0,0,0,
0,0,0,0,0,0,0,0,0,0,0,0,0,0,0,0,0,0,0,0,0,0,0,0,0,0,0,0,0,0,
0,0,0,0,0,0,0,0,0,0,0,0,0,0,0,0,0,0,0,0,0,0,0,0,0,0,0,0,0,0,
0,0,0,0,0,0,0,0,0,0,0,0,0,0,0,0,0,0,0,0,0,0,0,0,0,0,0,0,0,0,
0,0,0,0,0,0,0,0,0,0,0,0,0,0,0,0,0,0,0,0,0,0,0,0,0,0,0,0,0,0,
0,0,0,0,0,0,0,0,0,0,0,0,0,0,0,0,0,0,0,0,0,0,0,0,0,0,0,0,0,0,
0,0,0,0,0,0,0,0,0,0,0,0,0,0,0,0,0,0,0,0,0,0,0,0,0,0,0,0,0,0,
0,0,0,0,0,0,0,0,0,0,0,0,0,0,0,0,0,0,0,0,0,0,0,0,0,0,0,0,0,0,
0,0,0,0,0,0,0,0,0,0,0,0,0,0,0,0,0,0,0,0,0,0,0,0,0,0,0,0,0,0,
0,0,0,0,0,0,0,0,0,0,0,0,0,0,0,0,0,0,0,0,0,0,0,0,0,0,0,0,0,0,
0,0,0,0,0,0,0,0,0,0,0,0,0,0,0,0,0,0,0,0,0,0,0,0,0,0,0,0,0,0,
0,0,0,0,0,0,0,0,0,0,0,0,0,0,0,0,0,0,0,0,0,0,0,0,0,0,0,0,0,0
</data>
 </layer>
 <objectgroup id="6" name="collisions">
  <object id="140" x="416" y="160.125" width="15.875" height="15.875"/>
  <object id="141" x="432" y="160.125" width="15.875" height="15.875"/>
  <object id="142" x="448" y="160.125" width="15.875" height="15.875"/>
  <object id="143" x="464" y="160.125" width="15.875" height="15.875"/>
  <object id="144" x="400" y="176.125" width="15.875" height="15.875"/>
  <object id="145" x="384.125" y="128" width="15.75" height="16"/>
  <object id="146" x="400.125" y="128" width="15.75" height="16"/>
  <object id="147" x="416.125" y="128" width="15.75" height="16"/>
  <object id="148" x="432.125" y="128" width="15.75" height="16"/>
  <object id="149" x="448.125" y="128" width="15.75" height="16"/>
  <object id="150" x="464.125" y="128" width="15.75" height="16"/>
  <object id="151" x="368.125" y="144" width="15.75" height="16"/>
  <object id="152" x="352.125" y="160" width="15.75" height="16"/>
  <object id="153" x="384" y="128.125" width="15.625" height="15.75"/>
  <object id="154" x="368" y="144.125" width="15.625" height="15.75"/>
  <object id="155" x="352" y="160.125" width="15.625" height="15.75"/>
  <object id="156" x="352" y="176.125" width="15.625" height="15.75"/>
  <object id="157" x="352" y="192.125" width="15.625" height="15.75"/>
  <object id="158" x="352" y="208.125" width="15.625" height="15.75"/>
  <object id="159" x="352" y="224.125" width="15.625" height="15.75"/>
  <object id="160" x="352" y="240.125" width="15.625" height="15.75"/>
  <object id="161" x="352" y="256.125" width="15.625" height="15.75"/>
  <object id="162" x="352" y="272.125" width="15.625" height="15.75"/>
  <object id="163" x="352" y="288.125" width="15.625" height="15.75"/>
  <object id="164" x="352" y="304.125" width="15.625" height="15.75"/>
  <object id="165" x="400" y="175.875" width="15.75" height="16"/>
  <object id="166" x="384" y="191.875" width="15.75" height="16"/>
  <object id="167" x="384" y="207.875" width="15.75" height="16"/>
  <object id="168" x="384" y="223.875" width="15.75" height="16"/>
  <object id="169" x="384" y="239.875" width="15.75" height="16"/>
  <object id="170" x="384" y="255.875" width="15.75" height="16"/>
  <object id="171" x="384" y="271.875" width="15.75" height="16"/>
  <object id="172" x="384" y="287.875" width="15.75" height="16"/>
  <object id="173" x="384" y="303.875" width="15.75" height="16"/>
  <object id="174" x="384.125" y="128" width="15.625" height="16.125"/>
  <object id="175" x="368.125" y="143.875" width="15.875" height="16.125"/>
  <object id="176" x="368.125" y="144" width="15.625" height="16.125"/>
  <object id="177" x="352.125" y="159.875" width="15.875" height="16.125"/>
  <object id="178" x="400" y="176.125" width="15.75" height="15.75"/>
  <object id="179" x="416" y="160" width="15.875" height="16.125"/>
  <object id="180" x="384" y="192.125" width="15.75" height="15.75"/>
  <object id="181" x="400" y="176" width="15.875" height="16.125"/>
 </objectgroup>
</map>
